sprites/actors/ghost_inky/inky_right_alternate.svg

<?xml version="1.0" encoding="UTF-8" standalone="no"?>
<!-- Created with Inkscape (http://www.inkscape.org/) -->

<svg
   width="100"
   height="100"
   viewBox="0 0 100 100"
   version="1.1"
   id="svg5"
   inkscape:version="1.2 (dc2aeda, 2022-05-15)"
   sodipodi:docname="inky_right_alternate.svg"
   xmlns:inkscape="http://www.inkscape.org/namespaces/inkscape"
   xmlns:sodipodi="http://sodipodi.sourceforge.net/DTD/sodipodi-0.dtd"
   xmlns="http://www.w3.org/2000/svg"
   xmlns:svg="http://www.w3.org/2000/svg">
  <sodipodi:namedview
     id="namedview7"
     pagecolor="#ffffff"
     bordercolor="#000000"
     borderopacity="0.25"
     inkscape:showpageshadow="2"
     inkscape:pageopacity="0.0"
     inkscape:pagecheckerboard="0"
     inkscape:deskcolor="#d1d1d1"
     inkscape:document-units="px"
     showgrid="true"
     inkscape:zoom="5.5731762"
     inkscape:cx="46.741748"
     inkscape:cy="55.354431"
     inkscape:window-width="1920"
     inkscape:window-height="1016"
     inkscape:window-x="0"
     inkscape:window-y="0"
     inkscape:window-maximized="1"
     inkscape:current-layer="layer1">
    <inkscape:grid
       type="xygrid"
       id="grid2865" />
  </sodipodi:namedview>
  <defs
     id="defs2">
    <inkscape:perspective
       sodipodi:type="inkscape:persp3d"
       inkscape:vp_x="0 : 50 : 1"
       inkscape:vp_y="0 : 1000 : 0"
       inkscape:vp_z="100 : 50 : 1"
       inkscape:persp3d-origin="50 : 33.333333 : 1"
       id="perspective5340" />
  </defs>
  <g
     inkscape:label="Layer 1"
     inkscape:groupmode="layer"
     id="layer1">
    <path
       id="path13817"
       style="fill:#1789f8;fill-opacity:1;stroke-width:10"
       d="m 88.15059,38.241912 c 1.767402,5.650724 1.513313,11.354806 1.515831,16.912134 0.0069,15.133555 2.336145,24.776064 -0.602871,33.38026 -0.492324,1.441316 -8.892957,5.353059 -10.814348,1.052842 -2.352881,-5.265926 -2.792992,-12.198849 -6.329996,-13.185196 -2.973034,-0.829075 -5.260745,-1.992858 -5.730587,0.476328 -1.023113,5.376824 0.255132,9.717163 -1.616275,12.524589 -1.957218,2.936158 -6.213482,2.203325 -8.126831,0.525017 -2.506845,-2.198897 -4.333071,-9.660577 -5.673339,-14.005191 -1.124196,-3.644195 -5.134427,-1.912737 -8.312025,-0.801767 -7.481148,2.615602 -1.542429,10.227793 -4.166686,13.688713 -2.118493,2.793911 -7.481422,3.798432 -9.139246,0.753407 -2.447128,-4.494787 -1.337423,-13.368323 -3.679873,-14.25634 -3.13367,-1.187966 2.914587,-0.672176 -5.234091,-0.287849 -3.260184,0.153764 -2.319767,11.433412 -4.145292,13.984622 -0.860913,1.203144 -3.044057,2.686106 -5.105722,-3.075822 C 9.9983419,83.158306 10.528036,56.442006 10.279775,53.627516 8.6674062,35.348351 19.89767,17.771464 38.127833,12.0641 46.669214,9.3900281 55.434158,9.7326425 63.274037,12.49111 74.743495,16.526648 84.233072,25.732745 88.146273,38.228118 L 50.05386,50.157593 Z"
       sodipodi:nodetypes="cssssssssssssssssssccc" />
    <path
       style="fill:#ffffff;fill-opacity:1;stroke-width:10"
       id="path14682-2-2-7"
       sodipodi:type="arc"
       sodipodi:cx="44.268265"
       sodipodi:cy="37.804543"
       sodipodi:rx="10.931968"
       sodipodi:ry="10.931968"
       sodipodi:start="5.9800505"
       sodipodi:end="5.9796884"
       sodipodi:arc-type="slice"
       d="M 54.701794,34.541202 A 10.931968,10.931968 0 0 1 47.53255,48.237776 10.931968,10.931968 0 0 1 33.835327,41.069772 10.931968,10.931968 0 0 1 41.002091,27.3719 a 10.931968,10.931968 0 0 1 13.69852,7.165524 l -10.432346,3.267119 z" />
    <path
       style="fill:#0000ff;fill-opacity:1;stroke-width:10"
       id="path14684-0-3-8"
       sodipodi:type="arc"
       sodipodi:cx="46.735088"
       sodipodi:cy="39.635658"
       sodipodi:rx="7.4334154"
       sodipodi:ry="7.4334154"
       sodipodi:start="5.9800505"
       sodipodi:end="5.9796884"
       sodipodi:arc-type="slice"
       d="m 53.82958,37.416683 a 7.4334154,7.4334154 0 0 1 -4.874874,9.313266 7.4334154,7.4334154 0 0 1 -9.313708,-4.874031 7.4334154,7.4334154 0 0 1 4.873189,-9.314149 7.4334154,7.4334154 0 0 1 9.314589,4.872345 l -7.093688,2.221544 z" />
    <path
       style="fill:#ffffff;fill-opacity:1;stroke-width:10"
       id="path14682-2-2-7-4"
       sodipodi:type="arc"
       sodipodi:cx="70.922165"
       sodipodi:cy="37.794731"
       sodipodi:rx="10.931968"
       sodipodi:ry="10.931968"
       sodipodi:start="5.9800505"
       sodipodi:end="5.9796884"
       sodipodi:arc-type="slice"
       d="M 81.355694,34.531391 A 10.931968,10.931968 0 0 1 74.18645,48.227965 10.931968,10.931968 0 0 1 60.489227,41.059961 10.931968,10.931968 0 0 1 67.655991,27.362089 10.931968,10.931968 0 0 1 81.354512,34.527613 l -10.432347,3.267118 z" />
    <path
       style="fill:#0000ff;fill-opacity:1;stroke-width:10"
       id="path14684-0-3-8-5"
       sodipodi:type="arc"
       sodipodi:cx="73.388992"
       sodipodi:cy="39.625847"
       sodipodi:rx="7.4334154"
       sodipodi:ry="7.4334154"
       sodipodi:start="5.9800505"
       sodipodi:end="5.9796884"
       sodipodi:arc-type="slice"
       d="m 80.483484,37.406872 a 7.4334154,7.4334154 0 0 1 -4.874874,9.313266 7.4334154,7.4334154 0 0 1 -9.313708,-4.874032 7.4334154,7.4334154 0 0 1 4.873189,-9.314148 7.4334154,7.4334154 0 0 1 9.314589,4.872345 l -7.093688,2.221544 z" />
  </g>
</svg>

<svg width="100" height="100" xmlns="http://www.w3.org/2000/svg"><path d="M88.15 38.242c1.768 5.65 1.514 11.355 1.516 16.912.007 15.134 2.337 24.776-.602 33.38-.493 1.442-8.893 5.353-10.815 1.053-2.353-5.266-2.793-12.199-6.33-13.185-2.973-.83-5.26-1.993-5.73.476-1.023 5.377.255 9.717-1.617 12.525-1.957 2.936-6.213 2.203-8.126.525-2.507-2.199-4.334-9.66-5.674-14.005-1.124-3.645-5.134-1.913-8.312-.802-7.481 2.616-1.542 10.228-4.167 13.689-2.118 2.794-7.481 3.798-9.139.753-2.447-4.495-1.337-13.368-3.68-14.256-3.133-1.188 2.915-.672-5.234-.288-3.26.154-2.32 11.433-4.145 13.984-.861 1.204-3.044 2.687-5.106-3.075-.99-2.77-.461-29.486-.71-32.3-1.612-18.28 9.619-35.857 27.849-41.564a39.74 39.74 0 0 1 25.146.427c11.47 4.036 20.96 13.242 24.872 25.737l-38.092 11.93z" fill="#1789f8"/><path d="M54.702 34.541a10.932 10.932 0 0 1-7.17 13.697 10.932 10.932 0 0 1-13.697-7.168 10.932 10.932 0 0 1 7.167-13.698 10.932 10.932 0 0 1 13.699 7.165l-10.433 3.268z" fill="#fff"/><path d="M53.83 37.417a7.433 7.433 0 0 1-4.875 9.313 7.433 7.433 0 0 1-9.314-4.874 7.433 7.433 0 0 1 4.873-9.314 7.433 7.433 0 0 1 9.315 4.872l-7.094 2.222z" fill="#00f"/><path d="M81.356 34.531a10.932 10.932 0 0 1-7.17 13.697A10.932 10.932 0 0 1 60.49 41.06a10.932 10.932 0 0 1 7.167-13.698 10.932 10.932 0 0 1 13.699 7.166l-10.433 3.267z" fill="#fff"/><path d="M80.483 37.407a7.433 7.433 0 0 1-4.874 9.313 7.433 7.433 0 0 1-9.314-4.874 7.433 7.433 0 0 1 4.873-9.314 7.433 7.433 0 0 1 9.315 4.872l-7.094 2.222z" fill="#00f"/></svg>
